X:43
T: Mahnlied
N: A0399A
O: Europa, Mitteleuropa, Deutschland
N: Fliegendes Blatt, 1546.
R: Romanze, Ballade, Lied, religioeses Lied
M: 3/2
L: 1/2
K: G
GGG | _B2G | _B2c | d2
d | _e2d | c_Bc | d2z |
GGG | _B2G | _B2c | d2
d | _e2d | c_Bc | d2z |
ddd | d2_B | cA
d | c2A | _BG2 | =F2z |
ddd | d2G | _B2c | d2
d | d2_B | cA2 | G3 |
ddd | d2_B | cA
d | c2A | _BG2 | =F2z |
ddd | d2G | _B2c | d2
d | d2_B | cA2 | G3

@@@ Tune index: 356
